X:1536
T:Blackamoors Dance. JWDM.40
M:2/4
L:1/8
Q:320
S:J.Winder MS,Wyresdale,Lancs.,1789
R:Rant
O:England
A:Lancashire
Z:vmp.Taz Tarry
K:G
B/A/|G2-G2|ABcA|dedc|BcBA|G2-G2|ABcA|d2dc|B2g:|!
:"*"g2|ga g2|f-e d2|de d2|cBG2|G2 AB|c2BA|G2GA|G2:|
%Well,that's what it says!Bar lines may be adrift.


